icons-dark/actions/22/align-horizontal-center.svg

<svg xmlns="http://www.w3.org/2000/svg" viewBox="0 0 22 22">
  <defs id="defs3051">
    <style type="text/css" id="current-color-scheme">
      .ColorScheme-Text {
        color:#f2f2f2
      }
      </style>
  </defs>
 <path 
     style="fill:currentColor;fill-opacity:1;stroke:none" 
 d="m10.5 3v1h-2.5v1 3 1h2.5v4h-5.5v1 4h1 4.5v1h1v-1h5.5v-1-3-1h-5.5v-4h1.5 1v-1-3-1h-1-1.5v-1h-1m-1.5 2h4v3h-4v-3m-3 9h10v3h-10v-3"
	 class="ColorScheme-Text"
     />
</svg>

<?xml version="1.0" encoding="UTF-8" standalone="no"?>
<!-- Created with Inkscape (http://www.inkscape.org/) -->

<svg
   xmlns:dc="http://purl.org/dc/elements/1.1/"
   xmlns:cc="http://creativecommons.org/ns#"
   xmlns:rdf="http://www.w3.org/1999/02/22-rdf-syntax-ns#"
   xmlns:svg="http://www.w3.org/2000/svg"
   xmlns="http://www.w3.org/2000/svg"
   xmlns:sodipodi="http://sodipodi.sourceforge.net/DTD/sodipodi-0.dtd"
   xmlns:inkscape="http://www.inkscape.org/namespaces/inkscape"
   width="22"
   height="22"
   id="svg3760"
   version="1.1"
   inkscape:version="0.48.4 r9939"
   sodipodi:docname="align-horizontal-center.svg">
  <defs
     id="defs3762" />
  <sodipodi:namedview
     id="base"
     pagecolor="#ffffff"
     bordercolor="#666666"
     borderopacity="1.0"
     inkscape:pageopacity="0.0"
     inkscape:pageshadow="2"
     inkscape:zoom="23.069359"
     inkscape:cx="0.028285696"
     inkscape:cy="12.683252"
     inkscape:document-units="px"
     inkscape:current-layer="layer1"
     showgrid="true"
     fit-margin-top="0"
     fit-margin-left="0"
     fit-margin-right="0"
     fit-margin-bottom="0"
     inkscape:window-width="926"
     inkscape:window-height="1052"
     inkscape:window-x="56"
     inkscape:window-y="0"
     inkscape:window-maximized="0"
     inkscape:showpageshadow="false"
     showguides="true">
    <sodipodi:guide
       position="4.1796875e-06,21.999997"
       orientation="22,0"
       id="guide4116" />
    <sodipodi:guide
       position="4.1796875e-06,-2.6953124e-06"
       orientation="0,22"
       id="guide4118" />
    <sodipodi:guide
       position="22.000004,-2.6953124e-06"
       orientation="-22,0"
       id="guide4120" />
    <sodipodi:guide
       position="22.000004,21.999997"
       orientation="0,-22"
       id="guide4122" />
    <sodipodi:guide
       position="2.0000042,19.999997"
       orientation="18,0"
       id="guide4124" />
    <sodipodi:guide
       position="20.000004,1.9999973"
       orientation="-18,0"
       id="guide4128" />
    <sodipodi:guide
       position="20.000004,19.999997"
       orientation="0,-18"
       id="guide4130" />
    <sodipodi:guide
       position="3.0000042,18.999997"
       orientation="16,0"
       id="guide4132" />
    <sodipodi:guide
       position="3.0000042,2.9999973"
       orientation="0,16"
       id="guide4134" />
    <sodipodi:guide
       position="19.000004,2.9999973"
       orientation="-16,0"
       id="guide4136" />
    <sodipodi:guide
       position="19.000004,18.999997"
       orientation="0,-16"
       id="guide4138" />
    <inkscape:grid
       type="xygrid"
       id="grid4140" />
  </sodipodi:namedview>
  <metadata
     id="metadata3765">
    <rdf:RDF>
      <cc:Work
         rdf:about="">
        <dc:format>image/svg+xml</dc:format>
        <dc:type
           rdf:resource="http://purl.org/dc/dcmitype/StillImage" />
        <dc:title />
      </cc:Work>
    </rdf:RDF>
  </metadata>
  <g
     inkscape:label="Capa 1"
     inkscape:groupmode="layer"
     id="layer1"
     transform="translate(-553.72253,-583.11926)">
    <path
       style="opacity:1;fill:#f2f2f2;fill-opacity:1;stroke:none"
       d="M 10.5 3 L 10.5 4 L 8 4 L 8 5 L 8 8 L 8 9 L 10.5 9 L 10.5 13 L 5 13 L 5 14 L 5 18 L 6 18 L 10.5 18 L 10.5 19 L 11.5 19 L 11.5 18 L 17 18 L 17 17 L 17 14 L 17 13 L 11.5 13 L 11.5 9 L 13 9 L 14 9 L 14 8 L 14 5 L 14 4 L 13 4 L 11.5 4 L 11.5 3 L 10.5 3 z M 9 5 L 13 5 L 13 8 L 9 8 L 9 5 z M 6 14 L 16 14 L 16 17 L 6 17 L 6 14 z "
       transform="translate(553.72253,583.11926)"
       id="rect4120" />
  </g>
</svg>
